assets/icons/24px/stroke/command-24px.svg

<svg width="24" height="24" viewBox="0 0 24 24" fill="none" xmlns="http://www.w3.org/2000/svg">
<path fill-rule="evenodd" clip-rule="evenodd" d="M2 5.69999C2 3.65654 3.65655 2 5.7 2C7.74345 2 9.40001 3.65655 9.40001 5.7V7.39998H14.6V5.7C14.6 3.65655 16.2566 2 18.3 2C20.3435 2 22 3.65655 22 5.7C22 7.74345 20.3434 9.4 18.3 9.4L16.6 9.39999V14.6L18.3 14.6C20.3435 14.6 22 16.2566 22 18.3C22 20.3435 20.3434 22 18.3 22C16.2565 22 14.6 20.3435 14.6 18.3V16.6H9.40001V18.3C9.40001 20.3435 7.74346 22 5.7 22C3.65655 22 2 20.3435 2 18.3C2 16.2565 3.65655 14.6 5.7 14.6H7.40001V9.39998H5.69999C3.65654 9.39998 2 7.74344 2 5.69999ZM7.40001 7.39998V5.7C7.40001 4.76112 6.63889 4 5.7 4C4.76112 4 4 4.76112 4 5.69999C4 6.63887 4.76111 7.39998 5.69999 7.39998H7.40001ZM9.40001 9.39998V14.6H14.6V9.39998H9.40001ZM7.40001 16.6H5.7C4.76112 16.6 4 17.3611 4 18.3C4 19.2389 4.76112 20 5.7 20C6.63889 20 7.40001 19.2389 7.40001 18.3V16.6ZM16.6 16.6V18.3C16.6 19.2389 17.3611 20 18.3 20C19.2389 20 20 19.2389 20 18.3C20 17.3611 19.2389 16.6 18.3 16.6L16.6 16.6ZM16.6 7.39999L18.3 7.4C19.2389 7.4 20 6.63888 20 5.7C20 4.76111 19.2389 4 18.3 4C17.3611 4 16.6 4.76111 16.6 5.7V7.39999Z" fill="white"/>
</svg>

<svg width="24" height="24" fill="none" xmlns="http://www.w3.org/2000/svg"><path fill-rule="evenodd" clip-rule="evenodd" d="M2 5.7a3.7 3.7 0 0 1 7.4 0v1.7h5.2V5.7a3.7 3.7 0 1 1 3.7 3.7h-1.7v5.2h1.7a3.7 3.7 0 1 1-3.7 3.7v-1.7H9.4v1.7a3.7 3.7 0 1 1-3.7-3.7h1.7V9.4H5.7A3.7 3.7 0 0 1 2 5.7zm5.4 1.7V5.7a1.7 1.7 0 1 0-1.7 1.7h1.7zm2 2v5.2h5.2V9.4H9.4zm-2 7.2H5.7a1.7 1.7 0 1 0 1.7 1.7v-1.7zm9.2 0v1.7a1.7 1.7 0 1 0 1.7-1.7h-1.7zm0-9.2h1.7a1.7 1.7 0 1 0-1.7-1.7v1.7z" fill="#fff"/></svg>
